content/themes/dude/svg/logos/probot.svg

<svg width="120" height="30" viewBox="0 0 120 30" fill="none" xmlns="http://www.w3.org/2000/svg">
<g clip-path="url(#clip0_491_345)">
<path d="M29.0614 14.7242C28.991 6.73983 22.4284 0.324091 14.4034 0.393999C6.37857 0.464063 -0.0700051 6.99339 0.000573873 14.9777C0.0709949 22.9621 6.63357 29.3778 14.6586 29.3077C22.6834 29.2377 29.132 22.7085 29.0616 14.7242H29.0614Z" fill="#1C1E26"/>
<path d="M107.644 9.40439V11.7121H112.462V20.2989H114.98V11.7121H119.797V9.40439H107.644ZM46.2011 11.9745C46.1884 11.6587 46.1395 11.3665 46.0542 11.1026C45.9579 10.8025 45.8032 10.537 45.5916 10.3124C45.38 10.0878 45.0911 9.90238 44.7327 9.76257C44.4121 9.63846 44.0269 9.54735 43.5563 9.48922C43.119 9.43424 42.5821 9.40596 41.9584 9.40596H34.0621V20.2989H36.5806V16.5051H41.1358C41.8937 16.5051 42.5458 16.4736 43.0716 16.414C43.6274 16.3495 44.0806 16.2553 44.4579 16.1265C44.8795 15.9819 45.2063 15.7966 45.4574 15.5609C45.7084 15.3237 45.8948 15.0409 46.01 14.7252C46.1142 14.444 46.1758 14.1282 46.1932 13.7889C46.209 13.503 46.2153 13.1888 46.2153 12.8558C46.2153 12.5227 46.209 12.2399 46.1995 11.9745H46.2011ZM43.7016 13.5266C43.7016 13.8879 43.4079 14.1801 43.0448 14.1801H36.579V11.7058H43.0448C43.4079 11.7058 43.7016 11.998 43.7016 12.3593V13.5266ZM57.0674 16.4124C57.6232 16.348 58.0763 16.2537 58.4537 16.1249C58.8769 15.9804 59.2021 15.795 59.4532 15.5594C59.7042 15.3221 59.8906 15.0394 60.0058 14.7236C60.11 14.4424 60.17 14.1267 60.189 13.7873C60.2048 13.5014 60.2127 13.1872 60.2127 12.8542C60.2127 12.5211 60.2079 12.2384 60.1969 11.9729C60.1842 11.6571 60.1353 11.3649 60.05 11.101C59.9537 10.801 59.7974 10.5355 59.5874 10.3108C59.3758 10.0862 59.0869 9.90081 58.7284 9.761C58.4079 9.63689 58.0227 9.54578 57.5521 9.48765C57.1148 9.43267 56.5763 9.40439 55.9542 9.40439H48.0579V20.2973H50.5763V16.5035H54.0895L57.0516 20.2973H60.2111L57.0469 16.414C57.0469 16.414 57.0595 16.414 57.0658 16.4124H57.0674ZM52.8832 14.1785H50.5716V11.7043H57.0374C57.4006 11.7043 57.6942 11.9965 57.6942 12.3578V13.5234C57.6942 13.8847 57.4006 14.1769 57.0374 14.1769H52.8816L52.8832 14.1785ZM90.0927 15.7604C90.0184 15.4949 89.9174 15.2562 89.7942 15.0504C89.6663 14.8383 89.5163 14.6561 89.349 14.5068C89.2842 14.4487 89.2179 14.3953 89.15 14.345C89.2763 14.2036 89.3869 14.0371 89.4832 13.8486C89.5811 13.6522 89.6616 13.4229 89.7184 13.1684C89.7753 12.9186 89.8037 12.6327 89.8037 12.3201C89.8037 11.9053 89.7642 11.5283 89.6853 11.1968C89.589 10.79 89.3932 10.4428 89.1011 10.1663C88.8232 9.90081 88.4411 9.70287 87.9658 9.57562C87.5379 9.46252 87.0058 9.40596 86.3411 9.40596H77.649V20.2989H85.5263C86.1532 20.2989 86.7027 20.2706 87.1605 20.2125C87.6405 20.1528 88.0606 20.057 88.4048 19.9297C88.7837 19.7899 89.0995 19.6045 89.3427 19.3799C89.5859 19.1558 89.78 18.8841 89.9127 18.5819C90.0342 18.3022 90.1163 17.9896 90.1542 17.6487C90.189 17.3487 90.2063 17.0172 90.2063 16.6606C90.2063 16.3291 90.1684 16.0259 90.0942 15.7589L90.0927 15.7604ZM87.6769 17.4539C87.6769 17.8152 87.3832 18.1074 87.02 18.1074H80.1769V15.6332H87.02C87.3832 15.6332 87.6769 15.9254 87.6769 16.2867V17.4539ZM87.6769 12.9861C87.6769 13.2328 87.3832 13.4339 87.02 13.4339H80.1769V11.7404H87.02C87.3832 11.7404 87.6769 11.9415 87.6769 12.1881V12.9861ZM75.7874 13.2846C75.7716 12.7804 75.7179 12.3185 75.6279 11.91C75.53 11.467 75.3706 11.0696 75.1542 10.7318C74.9206 10.3658 74.589 10.0626 74.1674 9.82855C73.779 9.61333 73.2911 9.45152 72.7179 9.35098C72.1779 9.25515 71.5132 9.20645 70.7427 9.20645H67.1174C66.3469 9.20645 65.6821 9.25515 65.1421 9.35098C64.569 9.45309 64.0811 9.61333 63.6927 9.82855C63.2727 10.061 62.9395 10.3642 62.7042 10.7287C62.4848 11.068 62.3237 11.4655 62.2258 11.91C62.1358 12.3185 62.0837 12.7819 62.0695 13.2862C62.0569 13.7559 62.0506 14.2822 62.0506 14.8509C62.0506 15.4195 62.0569 15.9458 62.0695 16.4155C62.0837 16.9198 62.1358 17.3832 62.2258 17.7917C62.3237 18.2362 62.4848 18.6337 62.7042 18.973C62.9395 19.3375 63.2727 19.6407 63.6927 19.8732C64.0811 20.0884 64.569 20.2502 65.1421 20.3507C65.6821 20.4466 66.3469 20.4953 67.1174 20.4953H70.7427C71.5132 20.4953 72.1779 20.4466 72.7179 20.3507C73.2911 20.2486 73.779 20.0884 74.1674 19.8732C74.589 19.6391 74.9206 19.3359 75.1542 18.9699C75.3706 18.6321 75.53 18.2347 75.6279 17.7917C75.7179 17.3832 75.7716 16.9214 75.7874 16.4171C75.8016 15.9458 75.8095 15.418 75.8095 14.8493C75.8095 14.2806 75.8016 13.7528 75.7874 13.2815V13.2846ZM73.2911 17.5356C73.2911 17.8954 72.9927 18.186 72.6232 18.186H65.2384C64.869 18.186 64.5706 17.8954 64.5706 17.5356V12.163C64.5706 11.8048 64.869 11.5126 65.2384 11.5126H72.6232C72.9927 11.5126 73.2911 11.8032 73.2911 12.163V17.5356ZM105.781 13.2846C105.765 12.7804 105.712 12.3185 105.622 11.91C105.524 11.467 105.364 11.0696 105.148 10.7318C104.914 10.3658 104.583 10.0626 104.161 9.82855C103.773 9.61333 103.285 9.45152 102.712 9.35098C102.172 9.25515 101.507 9.20645 100.736 9.20645H97.1111C96.3406 9.20645 95.6758 9.25515 95.1358 9.35098C94.5627 9.45309 94.0748 9.61333 93.6863 9.82855C93.2663 10.061 92.9332 10.3642 92.6979 10.7287C92.4784 11.068 92.3174 11.4655 92.2195 11.91C92.1295 12.3185 92.0774 12.7819 92.0632 13.2862C92.0505 13.7559 92.0442 14.2822 92.0442 14.8509C92.0442 15.4195 92.0505 15.9458 92.0632 16.4155C92.0774 16.9198 92.1295 17.3832 92.2195 17.7917C92.3174 18.2362 92.4784 18.6337 92.6979 18.973C92.9332 19.3375 93.2663 19.6407 93.6863 19.8732C94.0748 20.0884 94.5627 20.2502 95.1358 20.3507C95.6758 20.4466 96.339 20.4953 97.1111 20.4953H100.736C101.507 20.4953 102.172 20.4466 102.712 20.3507C103.285 20.2486 103.773 20.0884 104.161 19.8732C104.583 19.6391 104.914 19.3359 105.148 18.9699C105.364 18.6321 105.524 18.2347 105.622 17.7917C105.712 17.3832 105.765 16.9214 105.781 16.4171C105.795 15.9458 105.803 15.418 105.803 14.8493C105.803 14.2806 105.795 13.7528 105.781 13.2815V13.2846ZM103.285 17.5356C103.285 17.8954 102.986 18.186 102.617 18.186H95.2321C94.8627 18.186 94.5642 17.8954 94.5642 17.5356V12.163C94.5642 11.8048 94.8627 11.5126 95.2321 11.5126H102.617C102.986 11.5126 103.285 11.8032 103.285 12.163V17.5356Z" fill="#1C1E26"/>
<path d="M19.5444 6.8813C17.552 6.8813 15.9363 8.48334 15.9363 10.4589C15.9363 12.4345 17.552 14.0366 19.5444 14.0366C21.5369 14.0366 23.1526 12.4345 23.1526 10.4589C23.1526 8.48334 21.5369 6.8813 19.5444 6.8813ZM19.5444 12.1938C18.5782 12.1938 17.7948 11.417 17.7948 10.4589C17.7948 9.50083 18.5782 8.72404 19.5444 8.72404C20.5107 8.72404 21.2941 9.50083 21.2941 10.4589C21.2941 11.417 20.5107 12.1938 19.5444 12.1938ZM15.4664 8.53023H13.545V12.3892H15.4664V8.53023ZM13.033 13.3392L9.46743 14.886L10.2378 16.6316L13.8033 15.0847L13.033 13.3392ZM14.0071 15.5487L10.4416 17.0956L11.2117 18.8411L14.7773 17.2942L14.0071 15.5487ZM9.46712 6.8813C7.4747 6.8813 5.85901 8.48334 5.85901 10.4589C5.85901 12.4345 7.4747 14.0366 9.46712 14.0366C11.4595 14.0366 13.0752 12.4345 13.0752 10.4589C13.0752 8.48334 11.4595 6.8813 9.46712 6.8813ZM9.46712 12.1938C8.50086 12.1938 7.71745 11.417 7.71745 10.4589C7.71745 9.50083 8.50086 8.72404 9.46712 8.72404C10.4334 8.72404 11.2168 9.50083 11.2168 10.4589C11.2168 11.417 10.4334 12.1938 9.46712 12.1938ZM14.7776 18.1612C12.7852 18.1612 11.1695 19.7633 11.1695 21.7389C11.1695 23.7144 12.7852 25.3165 14.7776 25.3165C16.77 25.3165 18.3857 23.7144 18.3857 21.7389C18.3857 19.7633 16.77 18.1612 14.7776 18.1612ZM14.7776 23.4737C13.8114 23.4737 13.0279 22.697 13.0279 21.7389C13.0279 20.7808 13.8114 20.004 14.7776 20.004C15.7439 20.004 16.5273 20.7808 16.5273 21.7389C16.5273 22.697 15.7439 23.4737 14.7776 23.4737Z" fill="white"/>
</g>
<defs>
<clipPath id="clip0_491_345">
<rect width="119.797" height="28.9149" fill="white" transform="translate(0 0.393433)"/>
</clipPath>
</defs>
</svg>

<svg class="is-bigger" width="120" height="30" viewBox="0 0 120 30" fill="none" xmlns="http://www.w3.org/2000/svg"><g clip-path="url(#prefix__clip0_491_345)"><path d="M29.061 14.724C28.991 6.74 22.428.324 14.403.394 6.38.464-.07 6.994.001 14.978c.07 7.984 6.633 14.4 14.658 14.33 8.024-.07 14.473-6.6 14.403-14.584zM107.644 9.404v2.308h4.818V20.3h2.518v-8.587h4.817V9.404h-12.153zm-61.443 2.57a3.26 3.26 0 00-.147-.871 2.056 2.056 0 00-.462-.79c-.212-.225-.5-.41-.86-.55a4.936 4.936 0 00-1.176-.274 13.124 13.124 0 00-1.598-.083h-7.896v10.893h2.519v-3.794h4.555c.758 0 1.41-.031 1.936-.091.555-.065 1.009-.159 1.386-.288.422-.144.748-.33 1-.565.25-.237.437-.52.552-.836.104-.281.166-.597.183-.936.016-.286.022-.6.022-.933 0-.333-.006-.616-.016-.881h.002zm-2.5 1.553a.655.655 0 01-.656.653h-6.466v-2.474h6.466c.363 0 .657.292.657.653v1.168zm13.366 2.885a6.7 6.7 0 001.387-.287c.423-.145.748-.33 1-.566.25-.237.437-.52.552-.835.104-.282.164-.597.183-.937a21.143 21.143 0 00.008-1.814 3.26 3.26 0 00-.147-.872 2.078 2.078 0 00-.463-.79c-.211-.225-.5-.41-.859-.55a4.934 4.934 0 00-1.176-.273 13.143 13.143 0 00-1.598-.084h-7.896v10.893h2.518v-3.794h3.514l2.962 3.794h3.16l-3.165-3.883s.013 0 .019-.002h.001zm-4.184-2.233h-2.311v-2.475h6.465c.364 0 .657.292.657.654v1.165a.655.655 0 01-.657.654h-4.155l.001.002zm37.21 1.581a2.908 2.908 0 00-.299-.71 2.354 2.354 0 00-.644-.705c.126-.141.237-.308.333-.496.098-.197.179-.426.235-.68.057-.25.086-.536.086-.849 0-.415-.04-.792-.119-1.123a2.038 2.038 0 00-.584-1.03c-.278-.266-.66-.464-1.135-.591-.428-.113-.96-.17-1.625-.17H77.65v10.893h7.877c.627 0 1.177-.028 1.635-.087.48-.06.9-.155 1.244-.282.379-.14.695-.325.938-.55.243-.224.437-.496.57-.798.121-.28.203-.592.241-.933.035-.3.052-.632.052-.988 0-.332-.038-.635-.112-.902l-.001.001zm-2.416 1.694a.655.655 0 01-.657.653h-6.843v-2.474h6.843c.363 0 .657.292.657.654v1.167zm0-4.468c0 .247-.294.448-.657.448h-6.843V11.74h6.843c.363 0 .657.201.657.448v.798zm-11.89.299a7.532 7.532 0 00-.16-1.375 3.627 3.627 0 00-.473-1.178 2.7 2.7 0 00-.987-.903c-.388-.216-.876-.377-1.45-.478-.54-.096-1.204-.145-1.974-.145h-3.626c-.77 0-1.435.05-1.975.145-.573.102-1.06.262-1.45.478-.42.232-.752.535-.988.9-.22.339-.38.737-.478 1.181-.09.409-.142.872-.157 1.376-.012.47-.018.996-.018 1.565 0 .568.006 1.095.018 1.565.015.504.067.967.157 1.376.098.444.259.842.478 1.181.236.364.569.668.989.9.388.215.876.377 1.45.478.54.096 1.204.144 1.974.144h3.626c.77 0 1.435-.048 1.975-.144.573-.102 1.061-.263 1.45-.478a2.7 2.7 0 00.986-.903c.217-.338.376-.735.474-1.178.09-.409.144-.87.16-1.375.014-.471.022-.999.022-1.568 0-.568-.008-1.096-.023-1.568v.004zm-2.496 4.25c0 .36-.298.651-.668.651h-7.385a.659.659 0 01-.667-.65v-5.373a.66.66 0 01.667-.65h7.385c.37 0 .668.29.668.65v5.373zm32.49-4.25a7.552 7.552 0 00-.159-1.375 3.639 3.639 0 00-.474-1.178 2.7 2.7 0 00-.987-.903c-.388-.216-.876-.377-1.449-.478-.54-.096-1.205-.145-1.976-.145h-3.625c-.77 0-1.435.05-1.975.145-.573.102-1.061.262-1.45.478-.42.232-.753.535-.988.9-.22.339-.38.737-.478 1.181-.09.409-.143.872-.157 1.376-.013.47-.019.996-.019 1.565 0 .568.007 1.095.02 1.565.013.504.066.967.156 1.376.097.444.258.842.478 1.181.235.364.568.668.988.9.389.215.877.377 1.45.478.54.096 1.203.144 1.975.144h3.625c.771 0 1.436-.048 1.976-.144.573-.102 1.061-.263 1.449-.478.422-.234.753-.537.987-.903.216-.338.376-.735.474-1.178.09-.409.143-.87.159-1.375a53.222 53.222 0 000-3.136v.004zm-2.496 4.25c0 .36-.299.651-.668.651h-7.385a.659.659 0 01-.668-.65v-5.373a.66.66 0 01.668-.65h7.385c.369 0 .668.29.668.65v5.373z" fill="#1C1E26"/><path class="do-not-fill" d="M19.544 6.881c-1.992 0-3.608 1.602-3.608 3.578 0 1.976 1.616 3.578 3.608 3.578 1.993 0 3.609-1.603 3.609-3.578 0-1.976-1.616-3.578-3.609-3.578zm0 5.313c-.966 0-1.75-.777-1.75-1.735 0-.958.784-1.735 1.75-1.735.967 0 1.75.777 1.75 1.735 0 .958-.783 1.735-1.75 1.735zM15.466 8.53h-1.921v3.86h1.921V8.53zm-2.433 4.81l-3.566 1.546.77 1.746 3.566-1.547-.77-1.746zm.974 2.209l-3.565 1.547.77 1.745 3.565-1.547-.77-1.745zM9.467 6.88c-1.992 0-3.608 1.602-3.608 3.578 0 1.976 1.616 3.578 3.608 3.578s3.608-1.603 3.608-3.578c0-1.976-1.615-3.578-3.608-3.578zm0 5.313c-.966 0-1.75-.777-1.75-1.735 0-.958.784-1.735 1.75-1.735s1.75.777 1.75 1.735c0 .958-.784 1.735-1.75 1.735zm5.31 5.967c-1.992 0-3.607 1.602-3.607 3.578 0 1.975 1.615 3.578 3.608 3.578 1.992 0 3.608-1.603 3.608-3.578 0-1.976-1.616-3.578-3.608-3.578zm0 5.313c-.966 0-1.75-.777-1.75-1.735 0-.958.784-1.735 1.75-1.735.967 0 1.75.777 1.75 1.735 0 .958-.783 1.735-1.75 1.735z" fill="#fff"/></g><defs><clipPath id="prefix__clip0_491_345"><path fill="#fff" transform="translate(0 .393)" d="M0 0h119.797v28.915H0z"/></clipPath></defs></svg>
